X:12184
T:O'Keefe's
M:6/8
L:1/8
K:D Major
a2f g2e|f2d B2A|a2f g2e|f2d def|!
a2f g2e|f2d B2A|GAB dBA|G2E E3:|!
GAB d3|dBe dBA|GAB dBA|B2e e3|!
GAB d3|dBe dBA|GAB dBA|G2E E3:|!


